I/idtdna.com logo.svg

<?xml version="1.0" ?>
<svg xmlns="http://www.w3.org/2000/svg" viewBox="0 0 96 28" fill="white">
	<path d="M37.43 27.481v-4.23h.892c.641 0 1.108.05 1.398.152.416.144.741.393.976.749.235.355.351.776.351 1.267 0 .425-.093.798-.278 1.119a1.76 1.76 0 0 1-.724.712c-.299.154-.714.231-1.25.231h-1.364zm.412-.4h.497c.593 0 1.004-.037 1.234-.11.323-.104.577-.29.763-.56.185-.268.277-.597.277-.985 0-.408-.1-.757-.302-1.047-.2-.288-.48-.488-.838-.594-.268-.08-.711-.12-1.328-.12h-.303v3.415zM41.832 27.48V23.25h.093l2.86 3.243V23.25h.422v4.229h-.096l-2.836-3.202v3.202h-.443zM47.76 23.251l2.002 4.23H49.3l-.676-1.392h-1.851l-.67 1.392h-.478l2.03-4.23h.106zm-.055.9-.737 1.53h1.468l-.731-1.53zM.48 23.251H.048v4.23h.43v-4.23zM1.315 27.48V23.25h.093l2.859 3.243V23.25h.423v4.229h-.097l-2.835-3.202v3.202h-.443zM5.526 23.665v-.414H7.88v.414h-.958v3.815h-.438v-3.815h-.958zM8.668 23.251h2.461v.414h-2.03v1.325h2.013v.415H9.098v1.662h2.014v.414H8.668v-4.23zM16.092 23.962l-.334.311a2.535 2.535 0 0 0-.786-.527 2.153 2.153 0 0 0-.833-.179c-.336 0-.658.082-.963.244a1.79 1.79 0 0 0-.708.662c-.166.28-.251.575-.251.885 0 .317.086.62.26.907.173.286.413.51.717.675.305.163.64.245 1.005.245.441 0 .816-.123 1.121-.368.307-.246.487-.564.543-.955h-1.37v-.408h1.852c-.003.654-.202 1.173-.592 1.558-.391.384-.912.576-1.566.576-.794 0-1.422-.267-1.887-.8a2.106 2.106 0 0 1-.535-1.422c0-.402.103-.773.307-1.119.205-.346.485-.614.841-.809a2.473 2.473 0 0 1 1.208-.291c.363 0 .706.063 1.028.193.325.13.638.335.943.622zM16.988 23.251h.857c.476 0 .8.02.97.059.254.057.462.18.62.37.16.19.24.423.24.698 0 .23-.055.432-.165.607-.11.176-.266.307-.471.395-.205.09-.486.134-.846.138l1.544 1.963h-.531l-1.545-1.963h-.241v1.963h-.43v-4.23h-.002zm.43.414v1.438l.74.007c.286 0 .498-.028.636-.08a.664.664 0 0 0 .322-.258.708.708 0 0 0 .115-.394.674.674 0 0 0-.424-.636c-.126-.049-.338-.073-.63-.073h-.759v-.004zM22.288 23.251l2.002 4.23h-.463l-.677-1.392H21.3l-.67 1.392h-.478l2.029-4.23h.107zm-.055.9-.737 1.53h1.468l-.731-1.53zM24.085 23.665v-.414h2.354v.414h-.958v3.815h-.438v-3.815h-.958zM27.275 23.251h2.461v.414h-2.03v1.325h2.013v.415h-2.014v1.662h2.014v.414h-2.444v-4.23zM30.572 27.481v-4.23h.892c.64 0 1.107.05 1.397.152.417.144.742.393.977.749.234.355.351.776.351 1.267 0 .425-.093.798-.278 1.119a1.76 1.76 0 0 1-.725.712c-.298.154-.713.231-1.25.231h-1.364zm.412-.4h.496c.593 0 1.005-.037 1.235-.11.323-.104.576-.29.763-.56.185-.268.276-.597.276-.985 0-.408-.1-.757-.301-1.047-.2-.288-.48-.488-.838-.594-.269-.08-.712-.12-1.328-.12h-.303v3.415zM52.026 23.665v-.414h2.354v.414h-.958v3.815h-.438v-3.815h-.958zM55.243 23.189h2.462v.414h-2.032v1.325h2.014v.414h-2.014v1.663h2.014v.414h-2.444v-4.23zM62.596 24.036l-.338.256a1.86 1.86 0 0 0-.673-.546 1.983 1.983 0 0 0-.863-.185c-.343 0-.66.08-.951.243a1.77 1.77 0 0 0-.68.653c-.161.274-.241.58-.241.92 0 .516.18.947.538 1.293.36.344.813.517 1.36.517.6 0 1.104-.23 1.509-.696l.338.252a2.159 2.159 0 0 1-.802.623c-.32.147-.678.22-1.072.22-.752 0-1.345-.246-1.78-.74-.363-.415-.544-.918-.544-1.506 0-.62.22-1.14.66-1.563.442-.422.994-.633 1.658-.633.402 0 .763.077 1.087.234.323.159.59.376.794.658zM63.24 23.251h.427v1.774h2.188V23.25h.43v4.23h-.43V25.44h-2.188v2.042h-.428v-4.23zM67.121 27.48V23.25h.093l2.858 3.243V23.25h.424v4.229H70.4l-2.836-3.202v3.202h-.443zM73.373 23.145c.65 0 1.195.214 1.633.64.438.427.658.953.658 1.579 0 .619-.22 1.145-.656 1.575-.438.431-.972.647-1.601.647-.637 0-1.175-.214-1.613-.643a2.105 2.105 0 0 1-.656-1.56c0-.406.1-.782.3-1.13.2-.347.471-.619.816-.815a2.238 2.238 0 0 1 1.12-.293zm.019.41c-.319 0-.62.082-.905.245a1.783 1.783 0 0 0-.906 1.582c0 .502.176.927.53 1.272.354.346.78.52 1.279.52.333 0 .641-.08.925-.238.285-.159.504-.377.664-.654.16-.276.239-.582.239-.92 0-.336-.079-.639-.239-.91a1.756 1.756 0 0 0-.671-.652 1.836 1.836 0 0 0-.916-.244zM76.425 23.251h.43v3.82h1.653v.41h-2.083v-4.23zM80.935 23.145c.65 0 1.194.214 1.632.64.439.427.659.953.659 1.579 0 .619-.22 1.145-.657 1.575-.438.431-.971.647-1.6.647-.637 0-1.175-.214-1.613-.643a2.105 2.105 0 0 1-.657-1.56c0-.406.1-.782.3-1.13.2-.347.472-.619.816-.815a2.238 2.238 0 0 1 1.12-.293zm.018.41c-.316 0-.62.082-.904.245a1.783 1.783 0 0 0-.907 1.582c0 .502.177.927.53 1.272.355.346.781.52 1.28.52.333 0 .64-.08.924-.238a1.72 1.72 0 0 0 .665-.654c.158-.276.238-.582.238-.92a1.76 1.76 0 0 0-.238-.91 1.78 1.78 0 0 0-.671-.652 1.836 1.836 0 0 0-.917-.244zM88.192 23.962l-.333.311a2.535 2.535 0 0 0-.787-.527 2.019 2.019 0 0 0-1.796.066 1.779 1.779 0 0 0-.708.661c-.166.28-.251.575-.251.885 0 .317.086.62.26.907.173.286.413.51.718.675.305.163.64.245 1.004.245.442 0 .816-.123 1.121-.368a1.45 1.45 0 0 0 .543-.955h-1.369v-.408h1.85c-.002.654-.2 1.173-.59 1.558-.392.384-.913.576-1.568.576-.795 0-1.423-.267-1.886-.8a2.106 2.106 0 0 1-.535-1.422c0-.402.104-.773.307-1.119.205-.346.485-.614.841-.809a2.473 2.473 0 0 1 1.208-.291c.363 0 .706.063 1.028.193.323.13.636.335.943.622zM89.518 23.251h-.43v4.23h.43v-4.23zM90.314 23.251h2.463v.414h-2.033v1.325h2.014v.415h-2.014v1.662h2.014v.414h-2.444v-4.23zM93.096 26.693l.365-.217c.257.466.555.698.891.698a.87.87 0 0 0 .407-.098.705.705 0 0 0 .386-.62.71.71 0 0 0-.145-.417c-.135-.188-.38-.414-.736-.678-.358-.267-.581-.46-.668-.578a1.046 1.046 0 0 1-.227-.647.95.95 0 0 1 .513-.861c.164-.087.34-.131.53-.131.203 0 .392.049.568.149.177.098.364.28.56.545l-.35.262c-.161-.21-.3-.349-.413-.416a.721.721 0 0 0-.373-.102.596.596 0 0 0-.425.156.503.503 0 0 0-.165.382c0 .091.02.181.059.267.038.086.11.18.213.281.056.054.241.195.555.423.371.27.626.51.764.72.138.212.207.423.207.636 0 .306-.118.573-.355.8a1.204 1.204 0 0 1-.863.338c-.26 0-.498-.069-.71-.206-.213-.135-.408-.364-.588-.686zM58.052 20.117l-.702-.031c-4.827-.212-9.485-4.046-13.842-7.955-4.498-4.04-9.15-8.218-14.034-8.585a9.668 9.668 0 0 0-.69-.026c-4.307 0-8.384 3.072-12.187 6.217l-.46.391-.435-.39-.69-.622-.531-.506.693-.62C19.465 4.14 24.467.04 29.496.143c5.154.107 9.74 3.943 14.17 7.652l.024.02c4.345 3.636 8.84 7.402 13.679 7.316l.681-.012v4.999h.002z" fill="#fff"/>
	<path d="M57.376.172c-3.807.031-7.276 3.06-10.63 5.993-.78.68-1.585 1.383-2.363 2.019l-.127.103c.533.446 1.07.891 1.61 1.328.646-.555 1.306-1.151 1.945-1.728 3.07-2.767 6.243-5.629 9.611-5.827l.647-.037V.167l-.693.005zM64.516.165h-3.842V20.13h3.842V.165zM66.774.165h4.392c2.22 0 4.126.192 5.716.573 1.589.383 2.917.996 3.986 1.838 1.225.956 2.146 2.054 2.759 3.297.613 1.241.92 2.605.92 4.09a9.59 9.59 0 0 1-.83 3.961 9.28 9.28 0 0 1-2.412 3.238c-1.055.92-2.36 1.647-3.914 2.175-1.552.529-3.33.79-5.334.79h-5.283V.166zm3.622 18.499h1.061a10.5 10.5 0 0 0 3.449-.557 7.908 7.908 0 0 0 2.804-1.653c.794-.73 1.422-1.633 1.884-2.707.46-1.073.691-2.313.691-3.716 0-1.225-.218-2.354-.655-3.382a7.897 7.897 0 0 0-1.82-2.656c-.777-.742-1.705-1.319-2.784-1.728-1.08-.411-2.258-.616-3.532-.616h-1.098v17.015z" fill="#fff"/>
	<path d="M96 .165v2.242h-5.128V20.13h-3.845V2.407H81.9V.165H96zM41.404 10.838c-3.808 3.204-7.905 6.33-12.434 6.33h-.042c-4.625-.029-8.786-3.4-12.79-7.042v.002l-.434-.39-.69-.622-.531-.507.001-.001C10.241 4.695 5.85.7.807.13L.044.044V5.19l.65.033c4.888.245 9.345 4.056 13.66 7.745 4.638 3.965 9.021 7.712 14.08 7.712.167 0 .334-.003.504-.013 5.33-.282 10.134-4.709 13.994-8.266l.433-.4c-.538-.483-1.08-.968-1.621-1.447l-.34.284z" fill="#fff"/>
	<path d="M11.874 10.875c-.783.652-1.57 1.348-2.33 2.023C6.65 15.462 3.658 18.114.641 18.48l-.611.073v1.882l.75-.057c3.668-.274 6.995-3.127 10.212-5.885a84.192 84.192 0 0 1 2.588-2.161l.016-.012c-.572-.485-1.145-.971-1.723-1.446z" fill="#fff"/>
</svg>

<?xml version="1.0" ?>
<svg xmlns="http://www.w3.org/2000/svg" viewBox="0 0 96 28" fill="white">
	<style>
		.cls0 { fill: #000; }
		.cls1 { fill: #004a87; }
	</style>
	<defs>
		<linearGradient id="top1">
			<stop offset="5%" stop-color="#006ee4" />
			<stop offset="75%" stop-color="#004b87" />
		</linearGradient>
		<linearGradient id="top2">
			<stop offset="5%" stop-color="#007aff" />
			<stop offset="75%" stop-color="#0074f1" />
		</linearGradient>
		<linearGradient id="top3">
			<stop offset="5%" stop-color="#8200ff" />
			<stop offset="95%" stop-color="#1bc9ff" />
		</linearGradient>
		<linearGradient id="top4">
			<stop offset="5%" stop-color="#14d7fe" />
			<stop offset="75%" stop-color="#01ffff" />
		</linearGradient>
	</defs>
	<path name="text" d="M 37.43,27.481 L 37.43,23.251 L 38.322,23.251 C 38.963,23.251 39.43,23.301 39.72,23.403 C 40.136,23.547 40.461,23.796 40.696,24.152 C 40.931,24.507 41.047,24.928 41.047,25.419 C 41.047,25.844 40.954,26.217 40.769,26.538 A 1.76,1.76 0.0 0,1 40.045,27.25 C 39.746,27.404 39.331,27.481 38.795,27.481 L 37.431,27.481 L 37.43,27.481 M 37.842,27.081 L 38.339,27.081 C 38.932,27.081 39.343,27.044 39.573,26.971 C 39.896,26.867 40.15,26.681 40.336,26.411 C 40.521,26.143 40.613,25.814 40.613,25.426 C 40.613,25.018 40.513,24.669 40.311,24.379 C 40.111,24.091 39.831,23.891 39.473,23.785 C 39.205,23.705 38.762,23.665 38.145,23.665 L 37.842,23.665 L 37.842,27.08 L 37.842,27.081 M 41.832,27.48 L 41.832,23.25 L 41.925,23.25 L 44.785,26.493 L 44.785,23.25 L 45.207,23.25 L 45.207,27.479 L 45.111,27.479 L 42.275,24.277 L 42.275,27.479 L 41.832,27.479 L 41.832,27.48 M 47.76,23.251 L 49.762,27.481 L 49.3,27.481 L 48.624,26.089 L 46.773,26.089 L 46.103,27.481 L 45.625,27.481 L 47.655,23.251 L 47.761,23.251 L 47.76,23.251 M 47.705,24.151 L 46.968,25.681 L 48.436,25.681 L 47.705,24.151 L 47.705,24.151 M 0.48,23.251 L 0.048,23.251 L 0.048,27.481 L 0.478,27.481 L 0.478,23.251 L 0.48,23.251 M 1.315,27.48 L 1.315,23.25 L 1.408,23.25 L 4.267,26.493 L 4.267,23.25 L 4.69,23.25 L 4.69,27.479 L 4.593,27.479 L 1.758,24.277 L 1.758,27.479 L 1.315,27.479 L 1.315,27.48 M 5.526,23.665 L 5.526,23.251 L 7.88,23.251 L 7.88,23.665 L 6.922,23.665 L 6.922,27.48 L 6.484,27.48 L 6.484,23.665 L 5.526,23.665 M 8.668,23.251 L 11.129,23.251 L 11.129,23.665 L 9.099,23.665 L 9.099,24.99 L 11.112,24.99 L 11.112,25.405 L 9.098,25.405 L 9.098,27.067 L 11.112,27.067 L 11.112,27.481 L 8.668,27.481 L 8.668,23.251 M 16.092,23.962 L 15.758,24.273 A 2.535,2.535 0.0 0,0 14.972,23.746 A 2.153,2.153 0.0 0,0 14.139,23.567 C 13.803,23.567 13.481,23.649 13.176,23.811 A 1.79,1.79 0.0 0,0 12.468,24.473 C 12.302,24.753 12.217,25.048 12.217,25.358 C 12.217,25.675 12.303,25.978 12.477,26.265 C 12.65,26.551 12.89,26.775 13.194,26.94 C 13.499,27.103 13.834,27.185 14.199,27.185 C 14.64,27.185 15.015,27.062 15.32,26.817 C 15.627,26.571 15.807,26.253 15.863,25.862 L 14.493,25.862 L 14.493,25.454 L 16.345,25.454 C 16.342,26.108 16.143,26.627 15.753,27.012 C 15.362,27.396 14.841,27.588 14.187,27.588 C 13.393,27.588 12.765,27.321 12.3,26.788 A 2.106,2.106 0.0 0,1 11.765,25.366 C 11.765,24.964 11.868,24.593 12.072,24.247 C 12.277,23.901 12.557,23.633 12.913,23.438 A 2.473,2.473 0.0 0,1 14.121,23.147 C 14.484,23.147 14.827,23.21 15.149,23.34 C 15.474,23.47 15.787,23.675 16.092,23.962 L 16.092,23.962 M 16.988,23.251 L 17.845,23.251 C 18.321,23.251 18.645,23.271 18.815,23.31 C 19.069,23.367 19.277,23.49 19.435,23.68 C 19.595,23.87 19.675,24.103 19.675,24.378 C 19.675,24.608 19.62,24.81 19.51,24.985 C 19.4,25.161 19.244,25.292 19.039,25.38 C 18.834,25.47 18.553,25.514 18.193,25.518 L 19.737,27.481 L 19.206,27.481 L 17.661,25.518 L 17.42,25.518 L 17.42,27.481 L 16.99,27.481 L 16.99,23.251 L 16.988,23.251 L 16.988,23.251 M 17.418,23.665 L 17.418,25.103 L 18.158,25.11 C 18.444,25.11 18.656,25.082 18.794,25.03 A 0.664,0.664 0.0 0,0 19.116,24.772 A 0.708,0.708 0.0 0,0 19.231,24.378 A 0.674,0.674 0.0 0,0 18.807,23.742 C 18.681,23.693 18.469,23.669 18.177,23.669 L 17.418,23.669 L 17.418,23.665 L 17.418,23.665 M 22.288,23.251 L 24.29,27.481 L 23.827,27.481 L 23.15,26.089 L 21.3,26.089 L 20.63,27.481 L 20.152,27.481 L 22.181,23.251 L 22.288,23.251 L 22.288,23.251 M 22.233,24.151 L 21.496,25.681 L 22.964,25.681 L 22.233,24.151 M 24.085,23.665 L 24.085,23.251 L 26.439,23.251 L 26.439,23.665 L 25.481,23.665 L 25.481,27.48 L 25.043,27.48 L 25.043,23.665 L 24.085,23.665 L 24.085,23.665 M 27.275,23.251 L 29.736,23.251 L 29.736,23.665 L 27.706,23.665 L 27.706,24.99 L 29.719,24.99 L 29.719,25.405 L 27.705,25.405 L 27.705,27.067 L 29.719,27.067 L 29.719,27.481 L 27.275,27.481 L 27.275,23.251 L 27.275,23.251 M 30.572,27.481 L 30.572,23.251 L 31.464,23.251 C 32.104,23.251 32.571,23.301 32.861,23.403 C 33.278,23.547 33.603,23.796 33.838,24.152 C 34.072,24.507 34.189,24.928 34.189,25.419 C 34.189,25.844 34.096,26.217 33.911,26.538 A 1.76,1.76 0.0 0,1 33.186,27.25 C 32.888,27.404 32.473,27.481 31.936,27.481 L 30.572,27.481 L 30.572,27.481 M 30.984,27.081 L 31.48,27.081 C 32.073,27.081 32.485,27.044 32.715,26.971 C 33.038,26.867 33.291,26.681 33.478,26.411 C 33.663,26.143 33.754,25.814 33.754,25.426 C 33.754,25.018 33.654,24.669 33.453,24.379 C 33.253,24.091 32.973,23.891 32.615,23.785 C 32.346,23.705 31.903,23.665 31.287,23.665 L 30.984,23.665 L 30.984,27.08 L 30.984,27.081 M 52.026,23.665 L 52.026,23.251 L 54.38,23.251 L 54.38,23.665 L 53.422,23.665 L 53.422,27.48 L 52.984,27.48 L 52.984,23.665 L 52.026,23.665 M 55.243,23.189 L 57.705,23.189 L 57.705,23.603 L 55.673,23.603 L 55.673,24.928 L 57.687,24.928 L 57.687,25.342 L 55.673,25.342 L 55.673,27.005 L 57.687,27.005 L 57.687,27.419 L 55.243,27.419 L 55.243,23.189 L 55.243,23.189 M 62.596,24.036 L 62.258,24.292 A 1.86,1.86 0.0 0,0 61.585,23.746 A 1.983,1.983 0.0 0,0 60.722,23.561 C 60.379,23.561 60.062,23.641 59.771,23.804 A 1.77,1.77 0.0 0,0 59.091,24.457 C 58.93,24.731 58.85,25.037 58.85,25.377 C 58.85,25.893 59.03,26.324 59.388,26.67 C 59.748,27.014 60.201,27.187 60.748,27.187 C 61.348,27.187 61.852,26.957 62.257,26.491 L 62.595,26.743 A 2.159,2.159 0.0 0,1 61.793,27.366 C 61.473,27.513 61.115,27.586 60.721,27.586 C 59.969,27.586 59.376,27.34 58.941,26.846 C 58.578,26.431 58.397,25.928 58.397,25.34 C 58.397,24.72 58.617,24.2 59.057,23.777 C 59.499,23.355 60.051,23.144 60.715,23.144 C 61.117,23.144 61.478,23.221 61.802,23.378 C 62.125,23.537 62.392,23.754 62.596,24.036 L 62.596,24.036 M 63.24,23.251 L 63.667,23.251 L 63.667,25.025 L 65.855,25.025 L 65.855,23.25 L 66.285,23.25 L 66.285,27.48 L 65.855,27.48 L 65.855,25.44 L 63.667,25.44 L 63.667,27.482 L 63.239,27.482 L 63.239,23.252 L 63.24,23.251 M 67.121,27.48 L 67.121,23.25 L 67.214,23.25 L 70.072,26.493 L 70.072,23.25 L 70.496,23.25 L 70.496,27.479 L 70.4,27.479 L 67.564,24.277 L 67.564,27.479 L 67.121,27.479 L 67.121,27.48 M 73.373,23.145 C 74.023,23.145 74.568,23.359 75.006,23.785 C 75.444,24.212 75.664,24.738 75.664,25.364 C 75.664,25.983 75.444,26.509 75.008,26.939 C 74.57,27.37 74.036,27.586 73.407,27.586 C 72.77,27.586 72.232,27.372 71.794,26.943 A 2.105,2.105 0.0 0,1 71.138,25.383 C 71.138,24.977 71.238,24.601 71.438,24.253 C 71.638,23.906 71.909,23.634 72.254,23.438 A 2.238,2.238 0.0 0,1 73.374,23.145 L 73.373,23.145 M 73.392,23.555 C 73.073,23.555 72.772,23.637 72.487,23.8 A 1.783,1.783 0.0 0,0 71.581,25.382 C 71.581,25.884 71.757,26.309 72.111,26.654 C 72.465,27.0 72.891,27.174 73.39,27.174 C 73.723,27.174 74.031,27.094 74.315,26.936 C 74.6,26.777 74.819,26.559 74.979,26.282 C 75.139,26.006 75.218,25.7 75.218,25.362 C 75.218,25.026 75.139,24.723 74.979,24.452 A 1.756,1.756 0.0 0,0 74.308,23.8 A 1.836,1.836 0.0 0,0 73.392,23.556 L 73.392,23.555 M 76.425,23.251 L 76.855,23.251 L 76.855,27.071 L 78.508,27.071 L 78.508,27.481 L 76.425,27.481 L 76.425,23.251 L 76.425,23.251 M 80.935,23.145 C 81.585,23.145 82.129,23.359 82.567,23.785 C 83.006,24.212 83.226,24.738 83.226,25.364 C 83.226,25.983 83.006,26.509 82.569,26.939 C 82.131,27.37 81.598,27.586 80.969,27.586 C 80.332,27.586 79.794,27.372 79.356,26.943 A 2.105,2.105 0.0 0,1 78.699,25.383 C 78.699,24.977 78.799,24.601 78.999,24.253 C 79.199,23.906 79.471,23.634 79.815,23.438 A 2.238,2.238 0.0 0,1 80.935,23.145 L 80.935,23.145 M 80.953,23.555 C 80.637,23.555 80.333,23.637 80.049,23.8 A 1.783,1.783 0.0 0,0 79.142,25.382 C 79.142,25.884 79.319,26.309 79.672,26.654 C 80.027,27.0 80.453,27.174 80.952,27.174 C 81.285,27.174 81.592,27.094 81.876,26.936 A 1.72,1.72 0.0 0,0 82.541,26.282 C 82.699,26.006 82.779,25.7 82.779,25.362 A 1.76,1.76 0.0 0,0 82.541,24.452 A 1.78,1.78 0.0 0,0 81.87,23.8 A 1.836,1.836 0.0 0,0 80.953,23.556 L 80.953,23.555 M 88.192,23.962 L 87.859,24.273 A 2.535,2.535 0.0 0,0 87.072,23.746 A 2.019,2.019 0.0 0,0 85.276,23.812 A 1.779,1.779 0.0 0,0 84.568,24.473 C 84.402,24.753 84.317,25.048 84.317,25.358 C 84.317,25.675 84.403,25.978 84.577,26.265 C 84.75,26.551 84.99,26.775 85.295,26.94 C 85.6,27.103 85.935,27.185 86.299,27.185 C 86.741,27.185 87.115,27.062 87.42,26.817 A 1.45,1.45 0.0 0,0 87.963,25.862 L 86.594,25.862 L 86.594,25.454 L 88.444,25.454 C 88.442,26.108 88.244,26.627 87.854,27.012 C 87.462,27.396 86.941,27.588 86.286,27.588 C 85.491,27.588 84.863,27.321 84.4,26.788 A 2.106,2.106 0.0 0,1 83.865,25.366 C 83.865,24.964 83.969,24.593 84.172,24.247 C 84.377,23.901 84.657,23.633 85.013,23.438 A 2.473,2.473 0.0 0,1 86.221,23.147 C 86.584,23.147 86.927,23.21 87.249,23.34 C 87.572,23.47 87.885,23.675 88.192,23.962 L 88.192,23.962 M 89.518,23.251 L 89.088,23.251 L 89.088,27.481 L 89.518,27.481 L 89.518,23.251 M 90.314,23.251 L 92.777,23.251 L 92.777,23.665 L 90.744,23.665 L 90.744,24.99 L 92.758,24.99 L 92.758,25.405 L 90.744,25.405 L 90.744,27.067 L 92.758,27.067 L 92.758,27.481 L 90.314,27.481 L 90.314,23.251 L 90.314,23.251 M 93.096,26.693 L 93.461,26.476 C 93.718,26.942 94.016,27.174 94.352,27.174 A 0.87,0.87 0.0 0,0 94.759,27.076 A 0.705,0.705 0.0 0,0 95.145,26.456 A 0.71,0.71 0.0 0,0 95.0,26.039 C 94.865,25.851 94.62,25.625 94.264,25.361 C 93.906,25.094 93.683,24.901 93.596,24.783 A 1.046,1.046 0.0 0,1 93.369,24.136 A 0.95,0.95 0.0 0,1 93.882,23.275 C 94.046,23.188 94.222,23.144 94.412,23.144 C 94.615,23.144 94.804,23.193 94.98,23.293 C 95.157,23.391 95.344,23.573 95.54,23.838 L 95.19,24.1 C 95.029,23.89 94.89,23.751 94.777,23.684 A 0.721,0.721 0.0 0,0 94.404,23.582 A 0.596,0.596 0.0 0,0 93.979,23.738 A 0.503,0.503 0.0 0,0 93.814,24.12 C 93.814,24.211 93.834,24.301 93.873,24.387 C 93.911,24.473 93.983,24.567 94.086,24.668 C 94.142,24.722 94.327,24.863 94.641,25.091 C 95.012,25.361 95.267,25.601 95.405,25.811 C 95.543,26.023 95.612,26.234 95.612,26.447 C 95.612,26.753 95.494,27.02 95.257,27.247 A 1.204,1.204 0.0 0,1 94.394,27.585 C 94.134,27.585 93.896,27.516 93.684,27.379 C 93.471,27.244 93.276,27.015 93.096,26.693 L 93.096,26.693" class="cls1" />
	<path name="I" d="M 64.516,0.165 L 60.674,0.165 L 60.674,20.13 L 64.516,20.13 L 64.516,0.165" class="cls1"/>
	<path name="D" d="M 66.774,0.165 L 71.166,0.165 C 73.386,0.165 75.292,0.357 76.882,0.738 C 78.471,1.121 79.799,1.734 80.868,2.576 C 82.093,3.532 83.014,4.63 83.627,5.873 C 84.24,7.114 84.547,8.478 84.547,9.963 A 9.59,9.59 0.0 0,1 83.717,13.924 A 9.28,9.28 0.0 0,1 81.305,17.162 C 80.25,18.082 78.945,18.809 77.391,19.337 C 75.839,19.866 74.061,20.127 72.057,20.127 L 66.774,20.127 L 66.774,0.166 L 66.774,0.165 M 70.396,18.664 L 71.457,18.664 A 10.5,10.5 0.0 0,0 74.906,18.107 A 7.908,7.908 0.0 0,0 77.71,16.454 C 78.504,15.724 79.132,14.821 79.594,13.747 C 80.054,12.674 80.285,11.434 80.285,10.031 C 80.285,8.806 80.067,7.677 79.63,6.649 A 7.897,7.897 0.0 0,0 77.81,3.993 C 77.033,3.251 76.105,2.674 75.026,2.265 C 73.946,1.854 72.768,1.649 71.494,1.649 L 70.396,1.649 L 70.396,18.664" class="cls1"/>
	<path name="T" d="M 96.0,0.165 L 96.0,2.407 L 90.872,2.407 L 90.872,20.13 L 87.027,20.13 L 87.027,2.407 L 81.9,2.407 L 81.9,0.165 L 96.0,0.165" class="cls1" />
	<path name="frontmid_top" fill="url(#top1)" d="M 58.052,20.117 L 57.35,20.086 C 52.523,19.874 47.865,16.04 43.508,12.131 C 39.01,8.091 34.358,3.913 29.474,3.546 A 9.668,9.668 0.0 0,0 28.784,3.52 C 24.477,3.52 20.4,6.592 16.597,9.737 L 16.137,10.128 L 15.702,9.738 L 15.012,9.116 L 14.481,8.61 L 15.174,7.99 C 19.465,4.14 24.467,0.04 29.496,0.143 C 34.65,0.25 39.236,4.086 43.666,7.795 L 43.69,7.815 C 48.035,11.451 52.53,15.217 57.369,15.131 L 58.05,15.119 L 58.05,20.118 L 58.052,20.118 L 58.052,20.117" />
	<path name="front_top"  fill="url(#top4)" d="M 57.376,0.172 C 53.569,0.203 50.1,3.232 46.746,6.165 C 45.966,6.845 45.161,7.548 44.383,8.184 L 44.256,8.287 C 44.789,8.733 45.326,9.178 45.866,9.615 C 46.512,9.06 47.172,8.464 47.811,7.887 C 50.881,5.12 54.054,2.258 57.422,2.06 L 58.069,2.023 L 58.069,0.167 L 57.376,0.172 L 57.376,0.172" />

	<path name="backmid_top" fill="url(#top3)"  d="M 41.404,10.838 C 37.596,14.042 33.499,17.168 28.97,17.168 L 28.928,17.168 C 24.303,17.139 20.142,13.768 16.138,10.126 L 16.138,10.128 L 15.704,9.738 L 15.014,9.116 L 14.483,8.609 L 14.484,8.608 C 10.241,4.695 5.85,0.7 0.807,0.13 L 0.044,0.044 L 0.044,5.19 L 0.694,5.223 C 5.582,5.468 10.039,9.279 14.354,12.968 C 18.992,16.933 23.375,20.68 28.434,20.68 C 28.601,20.68 28.768,20.677 28.938,20.667 C 34.268,20.385 39.072,15.958 42.932,12.401 L 43.365,12.001 C 42.827,11.518 42.285,11.033 41.744,10.554 L 41.404,10.838 L 41.404,10.838" />
	<path name="back_bottom" fill="url(#top2)" d="M 11.874,10.875 C 11.091,11.527 10.304,12.223 9.544,12.898 C 6.65,15.462 3.658,18.114 0.641,18.48 L 0.03,18.553 L 0.03,20.435 L 0.78,20.378 C 4.448,20.104 7.775,17.251 10.992,14.493 A 84.192,84.192 0.0 0,1 13.58,12.332 L 13.596,12.32 C 13.024,11.835 12.451,11.349 11.873,10.874 L 11.874,10.875" />
</svg>
